X:1
T:My Latest Sun Is Sinking Fast
T:William Batchelder Bradbury, 1862
T:My Latest Sun Is Sinking Fast
T:Public Domain
T:Public Domain
C:William Batchelder Bradbury, 1862
Z:Public Domain
%%score 1 ( 2 3 )
L:1/8
M:6/8
K:C
V:1 treble 
V:2 bass 
V:3 bass 
V:1
 [EG] | [EG]2 [EG] [EG]2 [EG] | [FA]2 [Ac] [Ac]2 [FA] | [EG]2 [Ec] [Gd]2 [Fd] | %4
w: 1.~My|lat- est sun is|sink- ing fast, My|race is near- ly|
w: 2.~I|know I’m near the|ho- ly ranks Of|friends and kin- dred|
w: 3.~I’ve|al- most reached my|heav- ’nly home, My|spir- it loud- ly|
w: 4.~O|bear my long- ing|heart to Him, Who|bled and died for|
 [Ec]3- [Ec]2 ([EG]/[EG]/) | [EG]2 [EG] [EG]2 [EG] | [FA]2 [Ac] [Ac]2 [FA] | %7
w: run; * My *|strong- est tri- als|now are past, My|
w: dear, * For~I *|hear the waves on|Jor- dan’s banks, The|
w: sings; * Thy *|ho- ly ones, be-|hold, they come! I|
w: me; * Whose *|blood now cleans- es|from all sin, And|
 [EG]2 [Ec] [Ge]2 [Fd] | [Ec]6 ||"^Refrain" [Gd]3 [Gd]3 | [Ge]2 [Fd] [Ec]3 | [Gd]3 [Gd]2 [Gd] | %12
w: tri- umph is be-|gun.||||
w: cross- ing must be|near.||||
w: hear the noise of|wings.||||
w: gives me vic- to-|ry.||||
 [Ge]2 [Fd] [Ec]2 [EG] | [Ec][Ec][Ec] [Fd][Ec][FA] | [EG]2 [CE] [EG]2 [EG] | %15
w: |||
w: |||
w: |||
w: |||
 [Gc]2 [Gc] [Gd]2 [Gd] | [Ge]3- [Ge]2 [EG] | [Ec][Ec][Ec] [Fd][Fc][FA] | [EG]2 [CE] [EG]2 [EG] | %19
w: ||||
w: ||||
w: ||||
w: ||||
 [Ec]2 [Ec] [Ge]2 [Fd] | [Ec]3- [Ec]2 |] %21
w: ||
w: ||
w: ||
w: ||
V:2
 [C,G,] | [C,G,]2 [C,G,] [C,C]2 [C,C] | [F,C]2 [F,C] [F,C]2 [F,C] | [G,C]2 [G,C] [G,C]2 [G,B,] | %4
w: ~|~ ~ ~ ~|~ ~ ~ ~|~ ~ ~ ~|
 [C,C]3- [C,C]2 ([C,G,]/[C,G,]/) | [C,G,]2 [C,G,] [C,C]2 [C,C] | [F,C]2 [F,C] [F,C]2 [F,C] | %7
w: ~ * ~ *|~ ~ ~ ~|~ ~ ~ ~|
 [G,C]2 [G,C] [G,C]2 [G,B,] | [C,C]6 || [G,B,]3 [G,B,]3 | C2 [G,B,] [C,C]3 | %11
w: ~ ~ ~ ~|~|O come,|an- gel band,|
 [G,B,]3 [G,B,]2 [G,B,] | C2 [G,B,] [C,C]2 [C,C] | [C,C][C,G,][C,G,] [F,A,][F,A,][F,C] | %14
w: Come and a-|round me stand; O|me a- way on your snow-|
 [C,C]2 [C,G,] [C,C]2 [C,C] | [E,C]2 [E,C] [G,B,]2 [G,B,] | C3- C2 [C,C] | %17
w: y wings To my|e- ter- nal home;|O * bear|
 [C,C][C,G,][C,G,] [F,A,][F,A,][F,C] | [C,C]2 [C,G,] [C,C]2 [C,C] | [G,C]2 [G,C] [G,C]2 [G,B,] | %20
w: a- way on your snow- y|wings To my e-|ter- nal home. *|
 [C,C]3- [C,C]2 |] %21
w: |
V:3
 x | x6 | x6 | x6 | x6 | x6 | x6 | x6 | x6 || x6 | x6 | x6 | C2 x4 | x6 | x6 | x6 | C3- C2 x | x6 | %18
w: ||||||||||||bear||||me *||
 x6 | x6 | x5 |] %21
w: |||

